X:1
T:Roll the Old Chariot
M:2/4
L:1/8
K:Eb
 z2 GG| BB GG| B2 GG| BB GG| E2 FF| AA FF| A2 FF| AA FF| D2 GG| BB GG|\
 B2 GG| BB GG| E2 FG| A2 G2| F2 B,2| E4| G2 A2| B2 G2| B2 GG| BB GG|\
 E2 FG| A2 F2| A2F-F| AA FF| D2 GA| B2 G2| B2 GG| BB GG| E2 FG| A2 G2|\
 F2 B,2| E2 z2|
